documentation/public/assets/images/chips-dos-and-donts-04.svg

<svg width="102" height="28" viewBox="0 0 102 28" fill="none" xmlns="http://www.w3.org/2000/svg">
<rect x="1" y="1" width="100" height="26" rx="3.5" fill="#F0F6FE"/>
<path fill-rule="evenodd" clip-rule="evenodd" d="M22.0697 9.93162C22.1999 10.0618 22.1999 10.2728 22.0697 10.403L14.5007 17.9721L10.9316 14.403C10.8014 14.2728 10.8014 14.0618 10.9316 13.9316C11.0618 13.8014 11.2728 13.8014 11.403 13.9316L14.5007 17.0292L21.5983 9.93162C21.7285 9.80144 21.9395 9.80144 22.0697 9.93162Z" fill="#194DCC" stroke="#194DCC" stroke-linecap="round"/>
<path d="M36.6932 11.5C36.5838 11.1652 36.4396 10.8653 36.2607 10.6001C36.085 10.3317 35.8745 10.103 35.6293 9.91406C35.3873 9.72514 35.1122 9.58097 34.804 9.48153C34.4957 9.3821 34.1577 9.33239 33.7898 9.33239C33.1866 9.33239 32.638 9.48816 32.1442 9.79972C31.6503 10.1113 31.2576 10.5703 30.9659 11.1768C30.6742 11.7834 30.5284 12.5275 30.5284 13.4091C30.5284 14.2907 30.6759 15.0348 30.9709 15.6413C31.2659 16.2479 31.6652 16.7069 32.169 17.0185C32.6728 17.33 33.2396 17.4858 33.8693 17.4858C34.4527 17.4858 34.9664 17.3615 35.4105 17.1129C35.858 16.861 36.206 16.5064 36.4545 16.049C36.7064 15.5883 36.8324 15.0464 36.8324 14.4233L37.2102 14.5028H34.1477V13.4091H38.0256V14.5028C38.0256 15.3414 37.8466 16.0705 37.4886 16.6903C37.134 17.3101 36.6435 17.7907 36.017 18.1321C35.3939 18.4702 34.678 18.6392 33.8693 18.6392C32.9678 18.6392 32.1757 18.4271 31.4929 18.0028C30.8134 17.5786 30.2831 16.9754 29.902 16.1932C29.5241 15.411 29.3352 14.483 29.3352 13.4091C29.3352 12.6037 29.4429 11.8795 29.6584 11.2365C29.8771 10.5902 30.1854 10.04 30.5831 9.58594C30.9808 9.13187 31.4515 8.78385 31.995 8.5419C32.5386 8.29995 33.1368 8.17898 33.7898 8.17898C34.3267 8.17898 34.8272 8.26018 35.2912 8.42258C35.7585 8.58168 36.1745 8.80871 36.5391 9.10369C36.907 9.39536 37.2135 9.74503 37.4588 10.1527C37.7041 10.5571 37.8731 11.0062 37.9659 11.5H36.6932ZM39.9782 18.5V10.8636H41.1117V12.017H41.1912C41.3304 11.6392 41.5823 11.3326 41.9469 11.0973C42.3115 10.862 42.7225 10.7443 43.1799 10.7443C43.266 10.7443 43.3738 10.746 43.503 10.7493C43.6323 10.7526 43.7301 10.7576 43.7963 10.7642V11.9574C43.7566 11.9474 43.6654 11.9325 43.5229 11.9126C43.3837 11.8894 43.2362 11.8778 43.0804 11.8778C42.7092 11.8778 42.3778 11.9557 42.0861 12.1115C41.7978 12.264 41.5691 12.4761 41.4 12.7479C41.2343 13.0163 41.1515 13.3229 41.1515 13.6676V18.5H39.9782ZM47.4343 18.679C46.9504 18.679 46.5112 18.5878 46.1168 18.4055C45.7224 18.2199 45.4092 17.9531 45.1772 17.6051C44.9452 17.2538 44.8292 16.8295 44.8292 16.3324C44.8292 15.8949 44.9154 15.5402 45.0877 15.2685C45.2601 14.9934 45.4904 14.7779 45.7788 14.6222C46.0671 14.4664 46.3853 14.3504 46.7333 14.2741C47.0846 14.1946 47.4376 14.1316 47.7923 14.0852C48.2563 14.0256 48.6325 13.9808 48.9208 13.951C49.2125 13.9179 49.4246 13.8632 49.5572 13.7869C49.6931 13.7107 49.761 13.5781 49.761 13.3892V13.3494C49.761 12.8589 49.6268 12.4777 49.3583 12.206C49.0932 11.9342 48.6905 11.7983 48.1502 11.7983C47.5901 11.7983 47.1509 11.9209 46.8327 12.1662C46.5146 12.4115 46.2908 12.6733 46.1616 12.9517L45.0479 12.554C45.2468 12.09 45.512 11.7287 45.8434 11.4702C46.1781 11.2083 46.5427 11.026 46.9371 10.9233C47.3349 10.8172 47.726 10.7642 48.1104 10.7642C48.3557 10.7642 48.6374 10.794 48.9556 10.8537C49.2771 10.91 49.587 11.0277 49.8853 11.2067C50.1869 11.3857 50.4371 11.6558 50.636 12.017C50.8349 12.3783 50.9343 12.8622 50.9343 13.4688V18.5H49.761V17.4659H49.7013C49.6218 17.6316 49.4892 17.8089 49.3036 17.9979C49.118 18.1868 48.8711 18.3475 48.5629 18.4801C48.2546 18.6127 47.8784 18.679 47.4343 18.679ZM47.6133 17.625C48.0773 17.625 48.4684 17.5339 48.7866 17.3516C49.1081 17.1693 49.35 16.9339 49.5124 16.6456C49.6781 16.3572 49.761 16.054 49.761 15.7358V14.6619C49.7113 14.7216 49.6019 14.7763 49.4329 14.826C49.2672 14.8724 49.0749 14.9138 48.8562 14.9503C48.6407 14.9834 48.4303 15.0133 48.2248 15.0398C48.0226 15.063 47.8585 15.0829 47.7326 15.0994C47.4277 15.1392 47.1426 15.2038 46.8775 15.2933C46.6156 15.3795 46.4035 15.5104 46.2411 15.6861C46.082 15.8584 46.0025 16.0937 46.0025 16.392C46.0025 16.7997 46.1533 17.108 46.4549 17.3168C46.7598 17.5223 47.146 17.625 47.6133 17.625ZM53.0758 18.5V10.8636H54.2093V12.0568H54.3088C54.4679 11.6491 54.7247 11.3326 55.0794 11.1072C55.434 10.8786 55.8599 10.7642 56.3571 10.7642C56.8609 10.7642 57.2801 10.8786 57.6149 11.1072C57.9529 11.3326 58.2164 11.6491 58.4054 12.0568H58.4849C58.6805 11.6624 58.9738 11.3492 59.3649 11.1172C59.756 10.8819 60.225 10.7642 60.7718 10.7642C61.4546 10.7642 62.0131 10.978 62.4473 11.4055C62.8815 11.8298 63.0985 12.491 63.0985 13.3892V18.5H61.9252V13.3892C61.9252 12.8258 61.7711 12.4231 61.4629 12.1811C61.1547 11.9392 60.7917 11.8182 60.3741 11.8182C59.8372 11.8182 59.4212 11.9806 59.1262 12.3054C58.8313 12.6269 58.6838 13.0346 58.6838 13.5284V18.5H57.4906V13.2699C57.4906 12.8357 57.3497 12.486 57.068 12.2209C56.7863 11.9524 56.4234 11.8182 55.9792 11.8182C55.6743 11.8182 55.3893 11.8994 55.1241 12.0618C54.8623 12.2242 54.6502 12.4496 54.4877 12.7379C54.3287 13.023 54.2491 13.3527 54.2491 13.7273V18.5H53.0758ZM65.2438 18.5V10.8636H66.3773V12.0568H66.4767C66.6358 11.6491 66.8927 11.3326 67.2473 11.1072C67.602 10.8786 68.0279 10.7642 68.525 10.7642C69.0288 10.7642 69.4481 10.8786 69.7828 11.1072C70.1209 11.3326 70.3844 11.6491 70.5733 12.0568H70.6529C70.8484 11.6624 71.1417 11.3492 71.5328 11.1172C71.9239 10.8819 72.3929 10.7642 72.9398 10.7642C73.6226 10.7642 74.181 10.978 74.6152 11.4055C75.0494 11.8298 75.2665 12.491 75.2665 13.3892V18.5H74.0932V13.3892C74.0932 12.8258 73.9391 12.4231 73.6309 12.1811C73.3226 11.9392 72.9597 11.8182 72.5421 11.8182C72.0051 11.8182 71.5892 11.9806 71.2942 12.3054C70.9992 12.6269 70.8517 13.0346 70.8517 13.5284V18.5H69.6586V13.2699C69.6586 12.8357 69.5177 12.486 69.236 12.2209C68.9542 11.9524 68.5913 11.8182 68.1472 11.8182C67.8423 11.8182 67.5572 11.8994 67.2921 12.0618C67.0302 12.2242 66.8181 12.4496 66.6557 12.7379C66.4966 13.023 66.4171 13.3527 66.4171 13.7273V18.5H65.2438ZM79.6589 18.679C79.175 18.679 78.7359 18.5878 78.3414 18.4055C77.947 18.2199 77.6338 17.9531 77.4018 17.6051C77.1698 17.2538 77.0538 16.8295 77.0538 16.3324C77.0538 15.8949 77.14 15.5402 77.3123 15.2685C77.4847 14.9934 77.715 14.7779 78.0034 14.6222C78.2917 14.4664 78.6099 14.3504 78.9579 14.2741C79.3092 14.1946 79.6622 14.1316 80.0169 14.0852C80.4809 14.0256 80.8571 13.9808 81.1454 13.951C81.4371 13.9179 81.6492 13.8632 81.7818 13.7869C81.9177 13.7107 81.9856 13.5781 81.9856 13.3892V13.3494C81.9856 12.8589 81.8514 12.4777 81.5829 12.206C81.3178 11.9342 80.9151 11.7983 80.3748 11.7983C79.8147 11.7983 79.3755 11.9209 79.0574 12.1662C78.7392 12.4115 78.5154 12.6733 78.3862 12.9517L77.2725 12.554C77.4714 12.09 77.7366 11.7287 78.068 11.4702C78.4028 11.2083 78.7673 11.026 79.1618 10.9233C79.5595 10.8172 79.9506 10.7642 80.335 10.7642C80.5803 10.7642 80.862 10.794 81.1802 10.8537C81.5017 10.91 81.8116 11.0277 82.1099 11.2067C82.4115 11.3857 82.6618 11.6558 82.8606 12.017C83.0595 12.3783 83.1589 12.8622 83.1589 13.4688V18.5H81.9856V17.4659H81.926C81.8464 17.6316 81.7138 17.8089 81.5282 17.9979C81.3426 18.1868 81.0957 18.3475 80.7875 18.4801C80.4792 18.6127 80.103 18.679 79.6589 18.679ZM79.8379 17.625C80.3019 17.625 80.693 17.5339 81.0112 17.3516C81.3327 17.1693 81.5746 16.9339 81.737 16.6456C81.9028 16.3572 81.9856 16.054 81.9856 15.7358V14.6619C81.9359 14.7216 81.8265 14.7763 81.6575 14.826C81.4918 14.8724 81.2995 14.9138 81.0808 14.9503C80.8654 14.9834 80.6549 15.0133 80.4494 15.0398C80.2472 15.063 80.0832 15.0829 79.9572 15.0994C79.6523 15.1392 79.3672 15.2038 79.1021 15.2933C78.8403 15.3795 78.6281 15.5104 78.4657 15.6861C78.3066 15.8584 78.2271 16.0937 78.2271 16.392C78.2271 16.7997 78.3779 17.108 78.6795 17.3168C78.9844 17.5223 79.3706 17.625 79.8379 17.625ZM85.3004 18.5V10.8636H86.4339V12.017H86.5135C86.6527 11.6392 86.9046 11.3326 87.2692 11.0973C87.6338 10.862 88.0447 10.7443 88.5021 10.7443C88.5883 10.7443 88.696 10.746 88.8253 10.7493C88.9545 10.7526 89.0523 10.7576 89.1186 10.7642V11.9574C89.0788 11.9474 88.9877 11.9325 88.8452 11.9126C88.706 11.8894 88.5585 11.8778 88.4027 11.8778C88.0315 11.8778 87.7 11.9557 87.4084 12.1115C87.12 12.264 86.8913 12.4761 86.7223 12.7479C86.5566 13.0163 86.4737 13.3229 86.4737 13.6676V18.5H85.3004Z" fill="#194DCC"/>
<rect x="1" y="1" width="100" height="26" rx="3.5" stroke="#0F67F5"/>
</svg>

<svg width="102" height="28" fill="none" xmlns="http://www.w3.org/2000/svg"><rect x="1" y="1" width="100" height="26" rx="3.5" fill="#F0F6FE"/><path fill-rule="evenodd" clip-rule="evenodd" d="M22.07 9.93c.13.13.13.34 0 .47l-7.57 7.57-3.57-3.57a.33.33 0 1 1 .47-.47l3.1 3.1 7.1-7.1a.33.33 0 0 1 .47 0Z" fill="#194DCC" stroke="#194DCC" stroke-linecap="round"/><path d="M36.7 11.5a3.6 3.6 0 0 0-.44-.9 2.78 2.78 0 0 0-2.47-1.27 3.02 3.02 0 0 0-2.82 1.85c-.3.6-.44 1.35-.44 2.23 0 .88.15 1.62.44 2.23.3.6.7 1.07 1.2 1.38.5.31 1.07.47 1.7.47.58 0 1.1-.13 1.54-.38.45-.25.8-.6 1.04-1.06.26-.46.38-1 .38-1.63l.38.08h-3.06v-1.1h3.88v1.1a4.3 4.3 0 0 1-.54 2.19 3.7 3.7 0 0 1-1.47 1.44c-.63.34-1.34.5-2.15.5-.9 0-1.7-.2-2.38-.63a4.29 4.29 0 0 1-1.59-1.8 6.34 6.34 0 0 1-.56-2.8c0-.8.1-1.52.32-2.16.22-.65.53-1.2.92-1.65a4.04 4.04 0 0 1 3.21-1.41 4.51 4.51 0 0 1 2.75.92 3.88 3.88 0 0 1 1.43 2.4h-1.28Zm3.28 7v-7.64h1.13v1.16h.08c.14-.38.4-.69.76-.92.36-.24.77-.36 1.23-.36a13.09 13.09 0 0 1 .62.02v1.2a3.44 3.44 0 0 0-.72-.08c-.37 0-.7.08-1 .23a1.71 1.71 0 0 0-.93 1.56v4.83h-1.17Zm7.45.18c-.48 0-.92-.1-1.31-.27a2.3 2.3 0 0 1-.94-.8 2.26 2.26 0 0 1-.35-1.28c0-.44.09-.79.26-1.06.17-.28.4-.5.69-.65.29-.15.6-.27.95-.35.35-.08.7-.14 1.06-.18l1.13-.14c.3-.03.5-.09.64-.16.13-.08.2-.21.2-.4v-.04c0-.5-.13-.87-.4-1.14-.27-.28-.67-.41-1.21-.41a2.1 2.1 0 0 0-1.99 1.15l-1.11-.4a2.67 2.67 0 0 1 1.89-1.63 4.54 4.54 0 0 1 2.02-.07c.32.06.63.18.93.36.3.18.55.45.75.8.2.37.3.85.3 1.46v5.03h-1.18v-1.03h-.06a2.3 2.3 0 0 1-1.14 1.01c-.3.13-.68.2-1.13.2Zm.18-1.05c.47 0 .86-.1 1.18-.28a1.86 1.86 0 0 0 .97-1.61v-1.08c-.05.06-.16.12-.33.17a5.55 5.55 0 0 1-1.2.21l-.5.06c-.3.04-.59.1-.85.2-.26.08-.48.21-.64.39a1 1 0 0 0-.24.7c0 .41.15.72.45.93.31.2.7.3 1.16.3Zm5.47.87v-7.64h1.13v1.2h.1c.16-.41.41-.73.77-.95a2.3 2.3 0 0 1 1.28-.35 2.14 2.14 0 0 1 2.05 1.3h.07c.2-.4.5-.71.88-.94.4-.24.87-.36 1.41-.36.68 0 1.24.22 1.68.65.43.42.65 1.08.65 1.98v5.11h-1.17v-5.11c0-.56-.16-.97-.47-1.2-.3-.25-.67-.37-1.09-.37-.53 0-.95.16-1.24.49-.3.32-.45.72-.45 1.22v4.97H57.5v-5.23c0-.43-.14-.78-.42-1.05-.28-.27-.65-.4-1.1-.4-.3 0-.58.08-.85.24a1.8 1.8 0 0 0-.63.68 2 2 0 0 0-.24.99v4.77h-1.17Zm12.16 0v-7.64h1.14v1.2h.1c.16-.41.41-.73.77-.95a2.3 2.3 0 0 1 1.28-.35 2.14 2.14 0 0 1 2.05 1.3h.07c.2-.4.5-.71.88-.94.4-.24.86-.36 1.41-.36.68 0 1.24.22 1.68.65.43.42.65 1.08.65 1.98v5.11h-1.18v-5.11c0-.56-.15-.97-.46-1.2-.3-.25-.67-.37-1.09-.37-.53 0-.95.16-1.25.49-.3.32-.44.72-.44 1.22v4.97h-1.2v-5.23c0-.43-.13-.78-.41-1.05-.29-.27-.65-.4-1.1-.4-.3 0-.58.08-.85.24a1.8 1.8 0 0 0-.63.68 2 2 0 0 0-.24.99v4.77h-1.18Zm14.42.18c-.48 0-.92-.1-1.32-.27-.4-.19-.7-.46-.94-.8a2.26 2.26 0 0 1-.35-1.28c0-.44.09-.79.26-1.06.17-.28.4-.5.7-.65.28-.15.6-.27.95-.35.35-.08.7-.14 1.06-.18l1.13-.14c.29-.03.5-.09.63-.16.14-.08.2-.21.2-.4v-.04c0-.5-.13-.87-.4-1.14-.26-.28-.66-.41-1.2-.41a2.07 2.07 0 0 0-1.99 1.15l-1.12-.4a2.67 2.67 0 0 1 1.9-1.63 4.54 4.54 0 0 1 2.01-.07c.32.06.63.18.93.36.3.18.55.45.75.8.2.37.3.85.3 1.46v5.03h-1.17v-1.03h-.06a2.3 2.3 0 0 1-1.14 1.01c-.31.13-.69.2-1.13.2Zm.18-1.05c.46 0 .85-.1 1.17-.28a1.86 1.86 0 0 0 .98-1.61v-1.08c-.05.06-.16.12-.33.17a5.55 5.55 0 0 1-1.21.21l-.5.06c-.3.04-.58.1-.85.2-.26.08-.47.21-.63.39a1 1 0 0 0-.24.7c0 .41.15.72.45.93.3.2.7.3 1.16.3Zm5.46.87v-7.64h1.13v1.16h.08c.14-.38.4-.69.76-.92.36-.24.77-.36 1.23-.36a13.1 13.1 0 0 1 .62.02v1.2a3.45 3.45 0 0 0-.72-.08c-.37 0-.7.08-1 .23a1.71 1.71 0 0 0-.93 1.56v4.83H85.3Z" fill="#194DCC"/><rect x="1" y="1" width="100" height="26" rx="3.5" stroke="#0F67F5"/></svg>
